static/icons/sketch.svg

<svg xmlns="http://www.w3.org/2000/svg" width="24" height="24" viewBox="0 0 24 24">
  <path fill-rule="evenodd" d="M5.65677201,11.9995886 L10.523559,17.1944735 L8.18000187,11.9995886 L5.65677201,11.9995886 Z M12,18.0303423 L14.7263381,11.9995886 L9.27366186,11.9995886 L12,18.0303423 Z M8.20343744,10.9996708 L9.79705629,7.99991771 L7.75034972,7.99991771 L5.50053487,10.9996708 L8.20343744,10.9996708 Z M13.476441,17.1944735 L18.343228,11.9995886 L15.8199981,11.9995886 L13.476441,17.1944735 Z M9.33615672,10.9996708 L14.6638433,10.9996708 L13.0702244,7.99991771 L10.9297756,7.99991771 L9.33615672,10.9996708 Z M15.7965626,10.9996708 L18.4994651,10.9996708 L16.2496503,7.99991771 L14.2029437,7.99991771 L15.7965626,10.9996708 Z M16.8980344,7.20310829 L19.8977876,11.2027791 C20.0462128,11.3902637 20.0305891,11.6636787 19.8665401,11.8433514 L12.3671573,19.8426931 C12.273415,19.9442473 12.1406134,19.9989303 12,19.9989303 C11.8593866,19.9989303 11.726585,19.9442473 11.6328427,19.8426931 L4.13345987,11.8433514 C3.96941088,11.6636787 3.95378716,11.3902637 4.10221245,11.2027791 L7.10196558,7.20310829 C7.19570787,7.07030671 7.34413315,7 7.5003703,7 L16.4996297,7 C16.6558668,7 16.8042921,7.07030671 16.8980344,7.20310829 Z"/>
</svg>

<svg xmlns="http://www.w3.org/2000/svg" width="24" height="24">
    <path fill-rule="evenodd" d="M5.657 12l4.867 5.194L8.18 12H5.657zM12 18.03L14.726 12H9.274L12 18.03zM8.203 11l1.594-3H7.75L5.5 11h2.703zm5.273 6.194L18.343 12H15.82l-2.344 5.194zM9.336 11h5.328L13.07 8h-2.14l-1.594 3zm6.46 0H18.5l-2.25-3h-2.046l1.594 3zm1.102-3.797l3 4a.497.497 0 0 1-.031.64l-7.5 8a.496.496 0 0 1-.367.156.496.496 0 0 1-.367-.156l-7.5-8a.497.497 0 0 1-.03-.64l2.999-4A.482.482 0 0 1 7.5 7h9c.156 0 .304.07.398.203z"/>
</svg>
